Catalina-dark/actions/22/view-task-child.svg

<svg version="1.1" viewBox="0 0 22 22" xmlns="http://www.w3.org/2000/svg">
<defs>
<style id="current-color-scheme" type="text/css">.ColorScheme-Text {
        color:#dedede
      }</style>
</defs>
<path class="ColorScheme-Text" d="m4 3c-0.55402 0-1 0.44598-1 1v14c0 0.55401 0.44598 1 1 1h14c0.55401 0 1-0.44599 1-1v-14c0-0.55402-0.44599-1-1-1h-14zm10.078 4.6328c0.15112 0 0.27902 0.0524 0.38477 0.1582l0.77148 0.77149c0.10575 0.10582 0.15828 0.23365 0.15821 0.38476 0 0.15119-0.0525 0.2809-0.15821 0.38672l-4.1035 4.1035-0.77149 0.77148c-0.10582 0.10575-0.23365 0.15821-0.38476 0.15821-0.15119 0-0.28097-0.0524-0.38672-0.15821l-0.76953-0.77148-2.0527-2.0527c-0.10582-0.10575-0.1582-0.23365-0.1582-0.38476 0-0.15118 0.0524-0.27895 0.1582-0.38477l0.77149-0.77148c0.10582-0.10582 0.23358-0.1582 0.38476-0.1582 0.15112 0 0.27895 0.0524 0.38477 0.1582l1.668 1.6719 3.7188-3.7246c0.10575-0.10582 0.23358-0.1582 0.38476-0.1582z" color="#dedede" fill="currentColor"/>
</svg>

<?xml version="1.0" encoding="UTF-8" standalone="no"?>
<svg
   xmlns:dc="http://purl.org/dc/elements/1.1/"
   xmlns:cc="http://creativecommons.org/ns#"
   xmlns:rdf="http://www.w3.org/1999/02/22-rdf-syntax-ns#"
   xmlns:svg="http://www.w3.org/2000/svg"
   xmlns="http://www.w3.org/2000/svg"
   xmlns:sodipodi="http://sodipodi.sourceforge.net/DTD/sodipodi-0.dtd"
   xmlns:inkscape="http://www.inkscape.org/namespaces/inkscape"
   viewBox="0 0 22 22"
   id="svg2"
   version="1.1"
   inkscape:version="0.91 r13725"
   sodipodi:docname="view-task-child.svg">
  <metadata
     id="metadata10">
    <rdf:RDF>
      <cc:Work
         rdf:about="">
        <dc:format>image/svg+xml</dc:format>
        <dc:type
           rdf:resource="http://purl.org/dc/dcmitype/StillImage" />
      </cc:Work>
    </rdf:RDF>
  </metadata>
  <sodipodi:namedview
     pagecolor="#ffffff"
     bordercolor="#666666"
     borderopacity="1"
     objecttolerance="10"
     gridtolerance="10"
     guidetolerance="10"
     inkscape:pageopacity="0"
     inkscape:pageshadow="2"
     inkscape:window-width="721"
     inkscape:window-height="480"
     id="namedview8"
     showgrid="false"
     inkscape:zoom="10.727273"
     inkscape:cx="11"
     inkscape:cy="11"
     inkscape:window-x="0"
     inkscape:window-y="38"
     inkscape:window-maximized="0"
     inkscape:current-layer="svg2" />
  <defs
     id="defs3051">
    <style
       type="text/css"
       id="current-color-scheme">
      .ColorScheme-Text {
        color:#f2f2f2
      }
      </style>
  </defs>
  <path
     style="color:#f2f2f2;fill:currentColor;fill-opacity:1;stroke:none"
     class="ColorScheme-Text"
     d="M 4,3 C 3.44598,3 3,3.44598 3,4 l 0,14 c 0,0.55401 0.44598,1 1,1 l 14,0 c 0.55401,0 1,-0.44599 1,-1 L 19,4 C 19,3.44598 18.55401,3 18,3 L 4,3 Z m 10.07812,4.63281 c 0.15112,0 0.27902,0.0524 0.38477,0.1582 l 0.77148,0.77149 c 0.10575,0.10582 0.15828,0.23365 0.15821,0.38476 0,0.15119 -0.0525,0.2809 -0.15821,0.38672 l -4.10351,4.10352 -0.77149,0.77148 c -0.10582,0.10575 -0.23365,0.15821 -0.38476,0.15821 -0.15119,0 -0.28097,-0.0524 -0.38672,-0.15821 L 8.81836,13.4375 6.76562,11.38476 C 6.6598,11.27901 6.60742,11.15111 6.60742,11 c 0,-0.15118 0.0524,-0.27895 0.1582,-0.38477 L 7.53711,9.84375 c 0.10582,-0.10582 0.23358,-0.1582 0.38476,-0.1582 0.15112,0 0.27895,0.0524 0.38477,0.1582 l 1.66797,1.67187 3.71875,-3.72461 c 0.10575,-0.10582 0.23358,-0.1582 0.38476,-0.1582 z"
     id="path6"
     inkscape:connector-curvature="0" />
</svg>
